X:80
T: Rose of Castletown
S: "The Roche Collection of Traditional Irish Music" [I/56/139]
N: Related to "Boys of the Lough"
L: 1/8
M: 4/4
R: reel
K: D
dB | AD (3FED A2 Bc | d2 fd ecdB | A2 FA BGAF | EDEF E2 dB |
AD (3FED A2 Bc | d2 fd ecdB | A2 FA dBAF | EDEF D2 ||
de | faag f2 fe | d2 fd ecdB | A2 FA BGAF | EDEF E2 de |
faag f2 fe | d2 fd ecdB | A2 FA BdAF | EDEF D2 |]
